X:1
T:Title
%%score { ( 1 3 ) | 2 }
L:1/8
Q:1/4=100
M:4/4
K:D
V:1 treble nm="Grand Piano"
V:3 treble 
V:2 bass 
V:1
 [FA][EG][DF][EG] [FA]2 [GB]2 | [FA]4 [Fd]2 z2 | [Ec]2 [DB]2 [CA]2 [CE]2 | [DF]2 [GB]2 [FA]4 | %4
w: Hubert~P.~Main * * * * *||||
 [FA][EG][DF][EG] [FA]2 [GB]2 | [FA]4 [Fd]2 [Ge][Fd] | c2 B2 A2 ^G2 | [CA]6 [EA][DA] | %8
w: ||||
 [DB]2 [B,DG]2 [B,Dd]2 [DGB]2 | [DFA]4 [A,DF]2 [A,CE][A,DF] | [A,CG]2 [A,CA]2 [A,DF]2 [B,EG]2 | %11
w: |||
 [A,CE]6 z2 | [A,DF][A,EG][FA][GB] [FA]2 d2 | d4 B2 z2 | A2 [CGA]2 [DFA]3 [F,D] | %15
w: ||||
 [A,DF]2[K:bass] [G,CE]2 [F,D]4 | [CE]4[K:treble] [CA]4 | F4 A4 | [EG]3 [DF] [EG]2 [CE]2 | %19
w: ||||
 [DF]2 [GB]2 [FA]4 | [Fd]2 [Gd]2 [Ad]2 [DFA]2 | [DGB]3 [DFA] [DFA]2 [A,DF]2 | %22
w: |||
 [A,DA]2 [A,FA]2 [Fd]2 [Ec]2 | [Fd]6 z2 |] %24
w: ||
V:2
 [D,D][D,D][D,A,][D,A,] [D,D]2 [D,D]2 | [D,D]4 [D,A,]2 z2 | [A,,A,]2 [A,,A,]2 [A,,E,]2 [A,,A,]2 | %3
 [D,A,]2 [D,D]2 [D,D]4 | [D,D][D,D][D,A,][D,A,] [D,D]2 [D,D]2 | [D,D]4 [D,A,]2 [C,A,][D,A,] | %6
 [E,A,E]2 [E,DE]2 [E,CE]2 [E,B,D]2 | [A,,A,]6 [D,F,][D,F,] | [G,,G,]2 G,,2 G,,2 B,,2 | %9
 D,4 D,2 G,F, | E,2 A,,2 D,2 G,,2 | A,,6 z2 | D,D,[D,D][D,D] [D,D]2 [F,A,D]2 | %13
 [G,B,G]4 [G,DG]2 z2 | [F,D]2 E,2 D,3 D, | A,,2 A,,2 D,4 | A,,2 A,,2 [A,,E,]2 A,,2 | %17
 [D,A,D]4 [D,F,D]4 | [A,,A,]3 [A,,A,] [A,,A,]2 [A,,A,]2 | [D,A,]2 [D,D]2 [D,D]4 | %20
 [D,A,]2 [E,A,]2 [F,A,]2 D,2 | G,,3 D, D,2 D,2 | F,2 D,2 A,2 [A,,A,]2 | [D,A,]6 z2 |] %24
V:3
 x8 | x8 | x8 | x8 | x8 | x8 | x8 | x8 | x8 | x8 | x8 | x8 | x8 | x8 | x8 | x2[K:bass] x6 | %16
 A,2 A,2[K:treble] z2 A,2 | x8 | x8 | x8 | x8 | x8 | x8 | x8 |] %24

